X: 42835
T: Wife She Brewed It, The
R: strathspey
M: 4/4
K: Amajor
E|A2 G>A F>A E2|A2 c>e a2 g>a|A2 G>A F>A E2|B<B c>A B2 e2|
A2 G>A F>A E2|A<A c>e a2 e2|f>ef>g a>ec>A|B>AB>c A3||
e|c>de>c A>Bc>A|F<B B>G A>GF>E|A>Bc>d c>de>f|e<c B>A B2 e>d|
c>de>c A>Bc>A|F<B B>G A>GF>E|A>Bc>d e>fg>a|e<c B>c A3||

